svg/development/cursor_line.svg

<?xml version="1.0" encoding="UTF-8"?>
<svg width="24px" height="24px" viewBox="0 0 24 24" version="1.1" xmlns="http://www.w3.org/2000/svg" xmlns:xlink="http://www.w3.org/1999/xlink">
    <title>cursor_line</title>
    <g id="页面-1" stroke="none" stroke-width="1" fill="none" fill-rule="evenodd">
        <g id="Development" transform="translate(-336.000000, 0.000000)">
            <g id="cursor_line" transform="translate(336.000000, 0.000000)">
                 <path d="M24,0 L24,24 L0,24 L0,0 L24,0 Z M12.5934901,23.257841 L12.5819402,23.2595131 L12.5108777,23.2950439 L12.4918791,23.2987469 L12.4918791,23.2987469 L12.4767152,23.2950439 L12.4056548,23.2595131 C12.3958229,23.2563662 12.3870493,23.2590235 12.3821421,23.2649074 L12.3780323,23.275831 L12.360941,23.7031097 L12.3658947,23.7234994 L12.3769048,23.7357139 L12.4804777,23.8096931 L12.4953491,23.8136134 L12.4953491,23.8136134 L12.5071152,23.8096931 L12.6106902,23.7357139 L12.6232938,23.7196733 L12.6232938,23.7196733 L12.6266527,23.7031097 L12.609561,23.275831 C12.6075724,23.2657013 12.6010112,23.2592993 12.5934901,23.257841 L12.5934901,23.257841 Z M12.8583906,23.1452862 L12.8445485,23.1473072 L12.6598443,23.2396597 L12.6498822,23.2499052 L12.6498822,23.2499052 L12.6471943,23.2611114 L12.6650943,23.6906389 L12.6699349,23.7034178 L12.6699349,23.7034178 L12.678386,23.7104931 L12.8793402,23.8032389 C12.8914285,23.8068999 12.9022333,23.8029875 12.9078286,23.7952264 L12.9118235,23.7811639 L12.8776777,23.1665331 C12.8752882,23.1545897 12.8674102,23.1470016 12.8583906,23.1452862 L12.8583906,23.1452862 Z M12.1430473,23.1473072 C12.1332178,23.1423925 12.1221763,23.1452606 12.1156365,23.1525954 L12.1099173,23.1665331 L12.0757714,23.7811639 C12.0751323,23.7926639 12.0828099,23.8018602 12.0926481,23.8045676 L12.108256,23.8032389 L12.3092106,23.7104931 L12.3186497,23.7024347 L12.3186497,23.7024347 L12.3225043,23.6906389 L12.340401,23.2611114 L12.337245,23.2485176 L12.337245,23.2485176 L12.3277531,23.2396597 L12.1430473,23.1473072 Z" id="MingCute" fill-rule="nonzero"></path>
                <path d="M8.55892,5.38685 L7.99203,14.2998 L9.6191,12.8941 C10.1777,12.4115 11.0445,12.6136 11.3321,13.2935 L14.0462,19.7095 L14.9146,19.3396 L12.3278,13.1579 C12.0389,12.4675 12.5173,11.6983 13.2643,11.6522 L15.4695,11.5163 L8.55892,5.38685 Z M6.6815,3.39615 C6.73899,2.49228 7.81132,2.05039 8.48891,2.6514 L18.4401,11.4777 C19.1644,12.1202 18.7516,13.3177 17.7852,13.3772 L14.6681,13.5695 L16.7595,18.5676 C17.184,19.5819 16.71,20.7486 15.6984,21.1796 L14.8301,21.5495 C13.8121,21.9832 12.6353,21.5079 12.2042,20.4887 L9.97835,15.2268 L7.65486,17.2342 C6.92522,17.8646 5.7969,17.3043 5.8581,16.342 L6.6815,3.39615 Z" id="形状" fill="#09244B"></path>
            </g>
        </g>
    </g>
</svg>

<svg xmlns="http://www.w3.org/2000/svg" width="24" height="24"><g fill="none" fill-rule="evenodd"><path d="M24 0v24H0V0h24ZM12.593 23.258l-.011.002-.071.035-.02.004-.014-.004-.071-.035c-.01-.004-.019-.001-.024.005l-.004.01-.017.428.005.02.01.013.104.074.015.004.012-.004.104-.074.012-.016.004-.017-.017-.427c-.002-.01-.009-.017-.017-.018Zm.265-.113-.013.002-.185.093-.01.01-.003.011.018.43.005.012.008.007.201.093c.012.004.023 0 .029-.008l.004-.014-.034-.614c-.003-.012-.01-.02-.02-.022Zm-.715.002a.023.023 0 0 0-.027.006l-.006.014-.034.614c0 .012.007.02.017.024l.015-.002.201-.093.01-.008.004-.011.017-.43-.003-.012-.01-.01-.184-.092Z"/><path fill="#09244B" d="M8.559 5.387 7.992 14.3l1.627-1.406a1.088 1.088 0 0 1 1.713.4l2.714 6.415.869-.37-2.587-6.181c-.29-.69.19-1.46.936-1.506l2.206-.136-6.911-6.13Zm-1.877-1.99a1.088 1.088 0 0 1 1.807-.746l9.951 8.827c.724.642.312 1.84-.655 1.9l-3.117.191 2.092 4.999a2 2 0 0 1-1.062 2.612l-.868.37a2 2 0 0 1-2.626-1.061l-2.226-5.262-2.323 2.007c-.73.63-1.858.07-1.797-.892l.824-12.946Z"/></g></svg>
